X: 072
T: Miss Dalrymple Hay's Reel
C: by John Pringle
B: John Pringle "Collection of Reels Strathspeys & Jigs", 1801 p.7#2
Z: 2011 John Chambers <jc:trillian.mit.edu>
R: reel
M: C|
L: 1/8
K: Em
V: 1
B | eBBc BGEF | GBAd FDDB | GEAc BecA BGFA BEE :|
e | gfge f^dBe | (A/B/c) BG FADf | gfge BecA | GBAc BEEe |
    gbge dcBe | AcBd | FdDF | GEAc | Befg | Befa gee |]
V: 2 clef=bass middle=d
z | e2e2 e2e2 | e2f2 d2d2 | e2e2 e2c2 | B2B2 E2E :|
z | e2e2 ^d2B2 | e2e2 d2d2 | e2e2 e2A2 | B2B2 E2E2 |
    e2e2 d2d2 | e2g2 d2d2 | e2^d2 e2f2 | b2B2 e2E |]

%%sep 2 1 500

